source/img/size-1.svg

<svg xmlns="http://www.w3.org/2000/svg" width="110" height="110"><circle cx="55" cy="55" r="50" fill="none" stroke="#2d2829" stroke-linecap="round" stroke-linejoin="round" stroke-width="5" stroke-dasharray=".001 15"/><path data-name="1 кг" d="M43.538 51.74l1.662-1.308v9.613h1.3V48.551h-.9l-2.743 2.12zm14.488.96l-3.1 3.595 3.317 3.754h1.81l-3.525-3.834 3.213-3.515h-1.715zm-3.413 7.349V52.7h-1.307v7.349h1.308zm8.125 0v-6.125h3.349V52.7h-4.656v7.349h1.308z" fill="#2f2f2f" fill-rule="evenodd"/></svg>

<svg xmlns="http://www.w3.org/2000/svg" width="110" height="110" viewBox="0 0 110 110">
  <metadata><?xpacket begin="﻿" id="W5M0MpCehiHzreSzNTczkc9d"?>
<x:xmpmeta xmlns:x="adobe:ns:meta/" x:xmptk="Adobe XMP Core 5.6-c142 79.160924, 2017/07/13-01:06:39        ">
   <rdf:RDF xmlns:rdf="http://www.w3.org/1999/02/22-rdf-syntax-ns#">
      <rdf:Description rdf:about=""/>
   </rdf:RDF>
</x:xmpmeta>
                                                                                                    
                                                                                                    
                                                                                                    
                                                                                                    
                                                                                                    
                                                                                                    
                                                                                                    
                                                                                                    
                                                                                                    
                                                                                                    
                                                                                                    
                                                                                                    
                                                                                                    
                                                                                                    
                                                                                                    
                                                                                                    
                                                                                                    
                                                                                                    
                                                                                                    
                                                                                                    
                           
<?xpacket end="w"?></metadata>
<defs>
    <style>
      .cls-1 {
        fill: none;
        stroke: #2d2829;
        stroke-linecap: round;
        stroke-linejoin: round;
        stroke-width: 5px;
        stroke-dasharray: 0.001 15;
      }

      .cls-2 {
        fill: #2f2f2f;
        fill-rule: evenodd;
      }
    </style>
  </defs>
  <circle id="круг1" class="cls-1" cx="55" cy="55" r="50"/>
  <path id="_1_кг" data-name="1 кг" class="cls-2" d="M43.538,51.74L45.2,50.432v9.613h1.3V48.551H45.6l-2.743,2.12ZM58.026,52.7l-3.1,3.595,3.317,3.754h1.81l-3.525-3.834L59.741,52.7H58.026Zm-3.413,7.349V52.7H53.306v7.349h1.308Zm8.125,0V53.924h3.349V52.7H61.431v7.349h1.308Z"/>
</svg>
